Origami/48x48/apps/cmyktool.svg

<svg width="48" height="48" version="1" xmlns="http://www.w3.org/2000/svg">
 <path d="m23.99939 3.9999997c-1.10005 0-2.200835 0.4100214-3.023149 1.2323158l-16.743963 16.74583c-1.644629 1.644587-1.642296 4.39682 0.0024 6.041409l16.743963 16.745829c1.644629 1.644589 4.399315 1.646922 6.043944 0.0024l16.743963-16.745828c1.644628-1.644589 1.644629-4.399178 0-6.043766l-16.744007-16.745874c-0.822314-0.8222943-1.9231-1.2323158-3.023151-1.2323158z" style="opacity:.2"/>
 <path d="m23.99939 3c-1.10005 0-2.200835 0.4100214-3.023149 1.2323158l-16.743963 16.745829c-1.644629 1.644587-1.642296 4.39682 0.0024 6.041409l16.743963 16.745829c1.644629 1.644589 4.399315 1.646922 6.043944 0.0024l16.743963-16.745828c1.644628-1.644589 1.644629-4.399178 0-6.043766l-16.744007-16.745873c-0.822314-0.8222943-1.9231-1.2323158-3.023151-1.2323158z" style="fill:#696853"/>
 <path d="m24 6.9998785c-0.419064 0-0.839084 0.1554963-1.152344 0.46875l-6.378906 6.3808595c-0.626523 0.626506-0.624659 1.674274 2e-3 2.300782l6.378906 6.378906c0.626522 0.626507 1.676212 0.628371 2.302735 2e-3l6.376953-6.380859c0.626522-0.626507 0.626522-1.674275 0-2.300782l-6.377-6.3809065c-0.313261-0.3132537-0.733278-0.46875-1.152344-0.46875zm-10 10c-0.418743 2.33e-4 -0.837137 0.157397-1.150391 0.470703l-6.3789059 6.378906c-0.626507 0.626522-0.6283711 1.676212-0.0019531 2.302735l6.380859 6.376953c0.626507 0.626522 1.674275 0.626522 2.300782 0l6.380859-6.376953c0.313253-0.313261 0.46875-0.733278 0.46875-1.152344 0-0.419064-0.155496-0.839084-0.46875-1.152344l-6.380859-6.378906c-0.313253-0.313261-0.731648-0.468983-1.150391-0.46875zm20 0c-0.418743 2.33e-4 -0.837137 0.157397-1.150391 0.470703l-6.378906 6.378906c-0.626507 0.626522-0.628371 1.676212-2e-3 2.302735l6.380859 6.376953c0.626507 0.626522 1.674275 0.626522 2.300782 0l6.380906-6.376953c0.313254-0.313261 0.46875-0.733278 0.46875-1.152344 0-0.419064-0.155496-0.839084-0.46875-1.152344l-6.380859-6.378906c-0.313253-0.313261-0.731648-0.468983-1.150391-0.46875zm-10 10c-0.419064 0-0.839084 0.155496-1.152344 0.46875l-6.378906 6.380859c-0.626523 0.626506-0.624659 1.674274 2e-3 2.300782l6.378906 6.378906c0.626522 0.626507 1.676212 0.628371 2.302735 2e-3l6.376953-6.380859c0.626522-0.626507 0.626522-1.674275 0-2.300782l-6.377-6.380906c-0.313261-0.313253-0.733278-0.46875-1.152344-0.46875z" style="opacity:.2"/>
 <path d="M 24,3 C 22.89995,3 21.798876,3.4101275 20.976562,4.2324219 L 4.2324219,20.978516 C 3.2862751,21.924638 2.9037262,23.234678 3.046875,24.492188 3.1538236,23.568432 3.5371786,22.673741 4.2324219,21.978516 L 20.976562,5.2324219 C 21.798876,4.4101275 22.89995,4 24,4 c 1.100051,0 2.201124,0.4101276 3.023438,1.2324219 L 43.765625,21.978516 c 0.696999,0.696981 1.081282,1.594754 1.1875,2.521484 0.144413,-1.259969 -0.23987,-2.573878 -1.1875,-3.521484 L 27.023438,4.2324219 C 26.201124,3.4101276 25.100051,3 24,3 Z" style="fill:#ffffff;opacity:.1"/>
 <path d="m23.999731 6.0000614c-0.419064 0-0.838409 0.156198-1.151669 0.4694517l-6.378625 6.3793369c-0.626523 0.626506-0.625634 1.674971 9.78e-4 2.301479l6.378625 6.379335c0.626522 0.626507 1.675922 0.627396 2.302445 9.78e-4l6.378624-6.379335c0.626522-0.626507 0.626522-1.67587 0-2.302377l-6.378705-6.3794169c-0.313261-0.3132537-0.732607-0.4694517-1.151673-0.4694517z" style="fill:#3fa7e2"/>
 <path d="m23.999731 26.000063c-0.419064 0-0.838409 0.156197-1.151669 0.469451l-6.378625 6.379336c-0.626523 0.626506-0.625634 1.674971 9.78e-4 2.301479l6.378625 6.379335c0.626522 0.626507 1.675922 0.627396 2.302445 9.78e-4l6.378624-6.379335c0.626522-0.626507 0.626522-1.67587 0-2.302377l-6.378668-6.379379c-0.313261-0.313253-0.732606-0.469451-1.151672-0.469451z" style="fill:#3f3f3f"/>
 <path d="m41.99997 23.999761c0-0.419064-0.156198-0.838409-0.469452-1.151669l-6.379337-6.378625c-0.626506-0.626523-1.674971-0.625634-2.301479 9.78e-4l-6.379335 6.378625c-0.626507 0.626522-0.627396 1.675922-9.78e-4 2.302445l6.379335 6.378624c0.626507 0.626522 1.67587 0.626522 2.302377 0l6.379417-6.378705c0.313254-0.313261 0.469452-0.732607 0.469452-1.151673z" style="fill:#f1ca42"/>
 <path d="m21.999968 23.999761c0-0.419064-0.156197-0.838409-0.469451-1.151669l-6.379336-6.378625c-0.626506-0.626523-1.674971-0.625634-2.301479 9.78e-4l-6.379335 6.378625c-0.626507 0.626522-0.627396 1.675922-9.78e-4 2.302445l6.379335 6.378624c0.626507 0.626522 1.67587 0.626522 2.302377 0l6.379379-6.378668c0.313253-0.313261 0.469451-0.732606 0.469451-1.151672z" style="fill:#ea72bb"/>
 <path d="m24 6c-0.419064 0-0.839084 0.1554963-1.152344 0.46875l-6.378906 6.380859c-0.440099 0.440088-0.563538 1.086602-0.384766 1.650391 0.07525-0.238818 0.198342-0.463972 0.384766-0.650391l6.378906-6.380859c0.31326-0.3132537 0.73328-0.46875 1.152344-0.46875 0.419066 0 0.839083 0.1554963 1.152344 0.46875l6.376953 6.380859c0.186508 0.186504 0.311253 0.41145 0.386719 0.650391 0.178039-0.563713 0.05329-1.210388-0.386719-1.650391l-6.376953-6.380859c-0.313261-0.3132537-0.733278-0.46875-1.152344-0.46875zm-10 10c-0.418743 2.33e-4 -0.837137 0.157397-1.150391 0.470703l-6.3789059 6.378906c-0.4396221 0.439633-0.563487 1.08645-0.3867187 1.650391 0.0757142-0.23906 0.2002998-0.463967 0.3867187-0.650391l6.3789059-6.378906c0.313254-0.313306 0.731648-0.47047 1.150391-0.470703s0.837138 0.155489 1.150391 0.46875l6.380859 6.378906c0.186419 0.186423 0.30961 0.413005 0.384766 0.652344 0.051134-0.16284 0.083984-0.330323 0.083984-0.5 0-0.419064-0.155496-0.839084-0.46875-1.152344l-6.380859-6.378906c-0.313253-0.313261-0.731648-0.468983-1.150391-0.46875zm20 0c-0.418743 2.33e-4 -0.837137 0.157397-1.150391 0.470703l-6.378906 6.378906c-0.439622 0.439633-0.563487 1.08645-0.386719 1.650391 0.07572-0.23906 0.2003-0.463967 0.386719-0.650391l6.378906-6.378906c0.313254-0.313306 0.731648-0.47047 1.150391-0.470703s0.837138 0.155489 1.150391 0.46875l6.380859 6.378906c0.186419 0.186423 0.30961 0.413005 0.384766 0.652344 0.051134-0.16284 0.083984-0.330323 0.083984-0.5 0-0.419064-0.155496-0.839084-0.46875-1.152344l-6.380859-6.378906c-0.313253-0.313261-0.731648-0.468983-1.150391-0.46875zm-10 10c-0.419064 0-0.839084 0.155496-1.152344 0.46875l-6.378906 6.380859c-0.440099 0.440088-0.563538 1.086602-0.384766 1.650391 0.07525-0.238818 0.198342-0.463972 0.384766-0.650391l6.378906-6.380859c0.31326-0.313254 0.73328-0.46875 1.152344-0.46875 0.419066 0 0.839083 0.155497 1.152344 0.46875l6.376953 6.380859c0.186508 0.186504 0.311253 0.41145 0.386719 0.650391 0.178039-0.563713 0.05329-1.210388-0.386719-1.650391l-6.376953-6.380859c-0.313261-0.313253-0.733278-0.46875-1.152344-0.46875z" style="fill:#ffffff;opacity:.1"/>
</svg>

<svg xmlns="http://www.w3.org/2000/svg" width="48" height="48" version="1">
 <path style="opacity:0.2" d="m 23.99939,3.9999997 c -1.10005,0 -2.200835,0.4100214 -3.023149,1.2323158 L 4.2322781,21.978145 c -1.644629,1.644587 -1.642296,4.39682 0.0024,6.041409 L 20.978641,44.765383 c 1.644629,1.644589 4.399315,1.646922 6.043944,0.0024 L 43.766548,28.021955 c 1.644628,-1.644589 1.644629,-4.399178 0,-6.043766 L 27.022541,5.2323155 C 26.200227,4.4100212 25.099441,3.9999997 23.99939,3.9999997 Z"/>
 <path style="fill:#696853" d="M 23.99939,3 C 22.89934,3 21.798555,3.4100214 20.976241,4.2323158 L 4.2322781,20.978145 c -1.644629,1.644587 -1.642296,4.39682 0.0024,6.041409 L 20.978641,43.765383 c 1.644629,1.644589 4.399315,1.646922 6.043944,0.0024 L 43.766548,27.021955 c 1.644628,-1.644589 1.644629,-4.399178 0,-6.043766 L 27.022541,4.2323158 C 26.200227,3.4100215 25.099441,3 23.99939,3 Z"/>
 <path style="opacity:0.2" d="m 24,6.9998785 c -0.419064,0 -0.839084,0.1554963 -1.152344,0.46875 L 16.46875,13.849488 c -0.626523,0.626506 -0.624659,1.674274 0.002,2.300782 l 6.378906,6.378906 c 0.626522,0.626507 1.676212,0.628371 2.302735,0.002 l 6.376953,-6.380859 c 0.626522,-0.626507 0.626522,-1.674275 0,-2.300782 l -6.377,-6.3809065 C 24.839083,7.1553748 24.419066,6.9998785 24,6.9998785 Z M 14,16.999879 c -0.418743,2.33e-4 -0.837137,0.157397 -1.150391,0.470703 L 6.4707031,23.849488 C 5.8441961,24.47601 5.842332,25.5257 6.46875,26.152223 l 6.380859,6.376953 c 0.626507,0.626522 1.674275,0.626522 2.300782,0 L 21.53125,26.152223 C 21.844503,25.838962 22,25.418945 22,24.999879 22,24.580815 21.844504,24.160795 21.53125,23.847535 L 15.150391,17.468629 C 14.837138,17.155368 14.418743,16.999646 14,16.999879 Z m 20,0 c -0.418743,2.33e-4 -0.837137,0.157397 -1.150391,0.470703 l -6.378906,6.378906 c -0.626507,0.626522 -0.628371,1.676212 -0.002,2.302735 l 6.380859,6.376953 c 0.626507,0.626522 1.674275,0.626522 2.300782,0 L 41.53125,26.152223 C 41.844504,25.838962 42,25.418945 42,24.999879 42,24.580815 41.844504,24.160795 41.53125,23.847535 L 35.150391,17.468629 C 34.837138,17.155368 34.418743,16.999646 34,16.999879 Z m -10,10 c -0.419064,0 -0.839084,0.155496 -1.152344,0.46875 l -6.378906,6.380859 c -0.626523,0.626506 -0.624659,1.674274 0.002,2.300782 l 6.378906,6.378906 c 0.626522,0.626507 1.676212,0.628371 2.302735,0.002 l 6.376953,-6.380859 c 0.626522,-0.626507 0.626522,-1.674275 0,-2.300782 l -6.377,-6.380906 C 24.839083,27.155376 24.419066,26.999879 24,26.999879 Z"/>
 <path style="opacity:0.1;fill:#ffffff" d="M 24,3 C 22.89995,3 21.798876,3.4101275 20.976562,4.2324219 L 4.2324219,20.978516 C 3.2862751,21.924638 2.9037262,23.234678 3.046875,24.492188 3.1538236,23.568432 3.5371786,22.673741 4.2324219,21.978516 L 20.976562,5.2324219 C 21.798876,4.4101275 22.89995,4 24,4 c 1.100051,0 2.201124,0.4101276 3.023438,1.2324219 L 43.765625,21.978516 c 0.696999,0.696981 1.081282,1.594754 1.1875,2.521484 0.144413,-1.259969 -0.23987,-2.573878 -1.1875,-3.521484 L 27.023438,4.2324219 C 26.201124,3.4101276 25.100051,3 24,3 Z"/>
 <path style="fill:#3fa7e2" d="m 23.999731,6.0000614 c -0.419064,0 -0.838409,0.156198 -1.151669,0.4694517 L 16.469437,12.84885 c -0.626523,0.626506 -0.625634,1.674971 9.78e-4,2.301479 l 6.378625,6.379335 c 0.626522,0.626507 1.675922,0.627396 2.302445,9.78e-4 l 6.378624,-6.379335 c 0.626522,-0.626507 0.626522,-1.67587 0,-2.302377 L 25.151404,6.4695131 C 24.838143,6.1562594 24.418797,6.0000614 23.999731,6.0000614 Z"/>
 <path style="fill:#3f3f3f" d="m 23.999731,26.000063 c -0.419064,0 -0.838409,0.156197 -1.151669,0.469451 l -6.378625,6.379336 c -0.626523,0.626506 -0.625634,1.674971 9.78e-4,2.301479 l 6.378625,6.379335 c 0.626522,0.626507 1.675922,0.627396 2.302445,9.78e-4 l 6.378624,-6.379335 c 0.626522,-0.626507 0.626522,-1.67587 0,-2.302377 L 25.151441,26.469551 C 24.83818,26.156298 24.418835,26.0001 23.999769,26.0001 Z"/>
 <path style="fill:#f1ca42" d="m 41.99997,23.999761 c 0,-0.419064 -0.156198,-0.838409 -0.469452,-1.151669 l -6.379337,-6.378625 c -0.626506,-0.626523 -1.674971,-0.625634 -2.301479,9.78e-4 l -6.379335,6.378625 c -0.626507,0.626522 -0.627396,1.675922 -9.78e-4,2.302445 l 6.379335,6.378624 c 0.626507,0.626522 1.67587,0.626522 2.302377,0 l 6.379417,-6.378705 c 0.313254,-0.313261 0.469452,-0.732607 0.469452,-1.151673 z"/>
 <path style="fill:#ea72bb" d="m 21.999968,23.999761 c 0,-0.419064 -0.156197,-0.838409 -0.469451,-1.151669 l -6.379336,-6.378625 c -0.626506,-0.626523 -1.674971,-0.625634 -2.301479,9.78e-4 L 6.470367,22.84907 c -0.626507,0.626522 -0.627396,1.675922 -9.78e-4,2.302445 l 6.379335,6.378624 c 0.626507,0.626522 1.67587,0.626522 2.302377,0 l 6.379379,-6.378668 c 0.313253,-0.313261 0.469451,-0.732606 0.469451,-1.151672 z"/>
 <path style="opacity:0.1;fill:#ffffff" d="m 24,6 c -0.419064,0 -0.839084,0.1554963 -1.152344,0.46875 l -6.378906,6.380859 c -0.440099,0.440088 -0.563538,1.086602 -0.384766,1.650391 0.07525,-0.238818 0.198342,-0.463972 0.384766,-0.650391 L 22.847656,7.46875 C 23.160916,7.1554963 23.580936,7 24,7 c 0.419066,0 0.839083,0.1554963 1.152344,0.46875 l 6.376953,6.380859 c 0.186508,0.186504 0.311253,0.41145 0.386719,0.650391 0.178039,-0.563713 0.05329,-1.210388 -0.386719,-1.650391 L 25.152344,6.46875 C 24.839083,6.1554963 24.419066,6 24,6 Z M 14,16 c -0.418743,2.33e-4 -0.837137,0.157397 -1.150391,0.470703 L 6.4707031,22.849609 C 6.031081,23.289242 5.9072161,23.936059 6.0839844,24.5 6.1596986,24.26094 6.2842842,24.036033 6.4707031,23.849609 L 12.849609,17.470703 C 13.162863,17.157397 13.581257,17.000233 14,17 c 0.418743,-2.33e-4 0.837138,0.155489 1.150391,0.46875 l 6.380859,6.378906 C 21.717669,24.034079 21.84086,24.260661 21.916016,24.5 21.96715,24.33716 22,24.169677 22,24 22,23.580936 21.844504,23.160916 21.53125,22.847656 L 15.150391,16.46875 C 14.837138,16.155489 14.418743,15.999767 14,16 Z m 20,0 c -0.418743,2.33e-4 -0.837137,0.157397 -1.150391,0.470703 l -6.378906,6.378906 c -0.439622,0.439633 -0.563487,1.08645 -0.386719,1.650391 0.07572,-0.23906 0.2003,-0.463967 0.386719,-0.650391 l 6.378906,-6.378906 C 33.162863,17.157397 33.581257,17.000233 34,17 c 0.418743,-2.33e-4 0.837138,0.155489 1.150391,0.46875 l 6.380859,6.378906 C 41.717669,24.034079 41.84086,24.260661 41.916016,24.5 41.96715,24.33716 42,24.169677 42,24 42,23.580936 41.844504,23.160916 41.53125,22.847656 L 35.150391,16.46875 C 34.837138,16.155489 34.418743,15.999767 34,16 Z M 24,26 c -0.419064,0 -0.839084,0.155496 -1.152344,0.46875 l -6.378906,6.380859 c -0.440099,0.440088 -0.563538,1.086602 -0.384766,1.650391 0.07525,-0.238818 0.198342,-0.463972 0.384766,-0.650391 L 22.847656,27.46875 C 23.160916,27.155496 23.580936,27 24,27 c 0.419066,0 0.839083,0.155497 1.152344,0.46875 l 6.376953,6.380859 c 0.186508,0.186504 0.311253,0.41145 0.386719,0.650391 0.178039,-0.563713 0.05329,-1.210388 -0.386719,-1.650391 L 25.152344,26.46875 C 24.839083,26.155497 24.419066,26 24,26 Z"/>
</svg>
